!!!OTL: Flatterhaft (95b), S. 243
!!!id: T0256
**kern
*clefG2
*k[b-]
*F:
{4cc
=1
2g
8cc
8b-
=2
8a
8g
4a}
=3
{8cc
8cc
=4
4b-
4b-
4dd
=5
4cc}
4r
=6
{4a
=7
4a
4a
8a
8a
=8
8a
8cc
4cc}
=9
{8b-
8a
=10
4g
4cc
4b-
=11
4a}
4r
==
*-
!!!minrhy: 8
!!!meters: 3/4 ]  ZZ[4
!!!cut: Flatterhaft (95b), S. 243
!!!reg: Luxemburg
!!!trd: Singendes Volk, Esch-Alzette 1937 posth.
!!!rhy1: X_  X__XX  XXX_
!!!rhy2: XX  X_X_X_  X_0_
!!!key: T0256  08  F 3/4 ]  ZZ[4
!!!mod: PENTATONIK ]  AMBITUS[5
!!!kad: 3553
!!!akz: 23_45_33_23_
!!!fot: 'a__b__c__bs"
!!!for: 'a__b__c__b__
!!!fok: '\__-__-__\__
!! PHRAS[AUFTAKTIG]
!!!fkt: Liebeslieder
!!!bem1: Feulen, hhh Nikolaus Ewen, 10.6.1935,
!!!bem2: 1893 in Heffingen gelernt
!! THILL, Mathias:
!! PR[19] 2K[2] 2G[9] 3K[2] 3G[2] 4A[12] 4Ü[2] 5A[0] 6K[0] 6G[5]
!! 7K[0] 7G[0] 8A[0] MEHR[0] SI[35] ABS[43] SR[12] SP[23]
!! ST[12] 2k[7] 2g[30] 3k[0] 3g[0] 4d[2] 4ü[0] 5d[0] 6k[2] 6g[5]
!! 7k[0] 7g[0] 8d[0] mehr[0] si[47] dm[-12] sr[37] sp[9]
!! 1F[12] 2F[39] 3F[45] 4F[0] LF[0] 2P[0] 3P[4] 4P[0] TRI[0] DF[4] AB[49]
!! TF[0] U3K[0] U3[0] U4[0] U4Ü[0] U5[0] U6K[0] U6[0] U7K[0] U7[0]
!! N1[0] N2K[0] N2[0] N3K[0] N3[5] N4[7] N4Ü[0] N5[20] N6K[0] N6[16]
!!!n7k: 0] N7[11] O1[20] O2K[0] O2[11] O3K[0] O3[9] HÖ[0
